outputs/icons/communication/ptt_round.svg

<svg xmlns="http://www.w3.org/2000/svg" width="1200" height="1200" fill="none"><path fill="#000" fill-rule="evenodd" d="M358.899 432.076C298.755 432.076 250 480.832 250 540.975v435.72c0 60.145 48.755 108.9 108.899 108.9h435.596c60.14 0 108.895-48.755 108.895-108.9v-435.72c0-60.143-48.755-108.899-108.895-108.899zm0 53.518c-30.072 0-54.449 24.376-54.449 54.451v436.65c0 30.07 24.377 54.45 54.449 54.45h435.596c30.07 0 54.445-24.38 54.445-54.45v-436.65c0-30.075-24.375-54.451-54.445-54.451z"/><path fill="#000" d="M358.855 203.222C358.849 173.83 382.675 150 412.068 150c29.385 0 53.208 23.819 53.213 53.203l.044 246.268H358.899zM685.595 417.797c0-30.071 24.375-54.449 54.45-54.449 30.07 0 54.45 24.378 54.45 54.449v31.674h-108.9z"/><path fill="#000" fill-rule="evenodd" d="M413.348 585.595c-30.072 0-54.449 24.375-54.449 54.45V748.94c0 30.075 24.377 54.45 54.449 54.45h326.697c30.07 0 54.45-24.375 54.45-54.45V640.045c0-30.075-24.38-54.45-54.45-54.45z"/></svg>

<svg width="1200" height="1200" viewBox="0 0 1200 1200" fill="none" xmlns="http://www.w3.org/2000/svg"><path fill-rule="evenodd" d="M358.899 432.076C298.755 432.076 250 480.832 250 540.975V976.695C250 1036.84 298.755 1085.595 358.899 1085.595H794.495C854.635 1085.595 903.39 1036.84 903.39 976.695V540.975C903.39 480.832 854.635 432.076 794.495 432.076H358.899ZM358.899 485.594C328.827 485.594 304.45 509.97 304.45 540.045V976.695C304.45 1006.765 328.827 1031.145 358.899 1031.145H794.495C824.565 1031.145 848.94 1006.765 848.94 976.695V540.045C848.94 509.97 824.565 485.594 794.495 485.594H358.899Z" fill="black"/><path d="M358.855 203.222C358.849 173.83 382.675 150 412.068 150C441.453 150 465.276 173.819 465.281 203.203L465.325 449.471H358.899L358.855 203.222Z" fill="black"/><path d="M685.595 417.797C685.595 387.726 709.97 363.348 740.045 363.348C770.115 363.348 794.495 387.726 794.495 417.797V449.471H685.595V417.797Z" fill="black"/><path fill-rule="evenodd" d="M413.348 585.595C383.276 585.595 358.899 609.97 358.899 640.045V748.94C358.899 779.015 383.276 803.39 413.348 803.39H740.045C770.115 803.39 794.495 779.015 794.495 748.94V640.045C794.495 609.97 770.115 585.595 740.045 585.595H413.348Z" fill="black"/></svg>
